!!!ONB: MCCC : ILB0175_02 : Extracted Monophonic Melody
!!!COM: Beethoven, Ludwig van
!!!OPR: Piano Sonata No.14
!!!OMV: 2
!!!SCT: Op.27 No.2
!!!ODT: 1802///
**kern
*thru
*staff1
*Ipiano
*>A
*clefG2
*k[b-e-a-d-g-]
*D-:
*M3/4
*MM184
4dd-
=1
2cc
4b-
=2
4ee-
4r
4dd-
=3
4cc
4r
4b-
=4
4a-
4r
4gg-
=5
2ff
4ee-
=6
4aa-
4r
4gg-
=7
4ff
4r
4ee-
=8
4dd-
4r
4dd-[
=9
4dd-]
4cc
4b-[
=10
4b-]
4ee-
4dd-[
=11
4dd-]
4cc
[4b-
=12
4b-]
4a-
4gg-[
=13
4gg-]
4ff
4ee-[
=14
4ee-]
4aa-
4gg-[
=15
4gg-]
4ff
[4ee-
=16
4ee-]
4dd-
*>B
4dd-
=17
2dd-
4dd-
=18
4dd-
4cc
4cc-
=19
2cc-
4cc-
=20
4cc-
4b-
4b-
=21
2cc
4dd-
=22
2ee-
4g-[
=23
4g-]
4f
8b-
8g-
=24
4f
4e-
4dd-
=25
2cc
4b-
=26
4ee-
4r
4dd-[
=27
4dd-]
4cc
[4b-
=28
4b-]
4a-
4gg-
=29
2ff
4ee-
=30
4aa-
4r
4gg-[
=31
4gg-]
4ff
4ee-
=32
4aa-
4r
4gg-[
=33
4gg-]
4ff
4bb-[
=34
4bb-]
4aa-
4r
=35
2c
8e-
8d-
=36
4d-
4r
*>B
4dd-
=37
2dd-
4dd-
=38
4dd-
4cc
4cc-
=39
2cc-
4cc-
=40
4cc-
4b-
4b-
=41
2cc
4dd-
=42
2ee-
4g-[
=43
4g-]
4f
8b-
8g-
=44
4f
4e-
4dd-
=45
2cc
4b-
=46
4ee-
4r
4dd-[
=47
4dd-]
4cc
[4b-
=48
4b-]
4a-
4gg-
=49
2ff
4ee-
=50
4aa-
4r
4gg-[
=51
4gg-]
4ff
4ee-
=52
4aa-
4r
4gg-[
=53
4gg-]
4ff
4bb-[
=54
4bb-]
4aa-
4r
=55
2c
8e-
8d-
=56
4d-
4r
*>C
4f[
=57
2f]
4g-[
=58
2g-]
4ee-[
=59
4ee-]
4cc
4a-
=60
4dd-
4ff
4f[
=61
2f]
4g-[
=62
2g-]
4gg-[
=63
4gg-]
4bb-
4cc
=64
4ee-
4dd-
*>C
4f[
=65
2f]
4g-[
=66
2g-]
4ee-[
=67
4ee-]
4cc
4a-
=68
4dd-
4ff
4f[
=69
2f]
4g-[
=70
2g-]
4gg-[
=71
4gg-]
4bb-
4cc
=72
4ee-
4dd-
*>D
4ff[
=73
2ff]
4b-[
=74
2b-]
4ee-[
=75
2ee-]
4a-[
=76
2a-]
4dd-[
=77
2dd-]
4g-[
=78
2g-]
[4f
=79
4f]
4a-
4cc-[
=80
4cc-]
4b-
4dd-[
=81
2dd-]
4g-[
=82
2g-]
[4f
=83
2f]
4e[
=84
2e]
[4f
=85
2f]
4g-[
=86
2g-]
[4f
=87
4f]
4g-
4c
=88
4d-
4r
*>D
4ff[
=89
2ff]
4b-[
=90
2b-]
4ee-[
=91
2ee-]
4a-[
=92
2a-]
4dd-[
=93
2dd-]
4g-[
=94
2g-]
[4f
=95
4f]
4a-
4cc-[
=96
4cc-]
4b-
4dd-[
=97
2dd-]
4g-[
=98
2g-]
[4f
=99
2f]
4e[
=100
2e]
[4f
=101
2f]
4g-[
=102
2g-]
[4f
=103
4f]
4g-
4c
=104
4d-
4r
*>A
*M3/4
4dd-
=105
2cc
4b-
=106
4ee-
4r
4dd-
=107
4cc
4r
4b-
=108
4a-
4r
4gg-
=109
2ff
4ee-
=110
4aa-
4r
4gg-
=111
4ff
4r
4ee-
=112
4dd-
4r
4dd-[
=113
4dd-]
4cc
4b-[
=114
4b-]
4ee-
4dd-[
=115
4dd-]
4cc
[4b-
=116
4b-]
4a-
4gg-[
=117
4gg-]
4ff
4ee-[
=118
4ee-]
4aa-
4gg-[
=119
4gg-]
4ff
[4ee-
=120
4ee-]
4dd-
*>B
4dd-
=121
2dd-
4dd-
=122
4dd-
4cc
4cc-
=123
2cc-
4cc-
=124
4cc-
4b-
4b-
=125
2cc
4dd-
=126
2ee-
4g-[
=127
4g-]
4f
8b-
8g-
=128
4f
4e-
4dd-
=129
2cc
4b-
=130
4ee-
4r
4dd-[
=131
4dd-]
4cc
[4b-
=132
4b-]
4a-
4gg-
=133
2ff
4ee-
=134
4aa-
4r
4gg-[
=135
4gg-]
4ff
4ee-
=136
4aa-
4r
4gg-[
=137
4gg-]
4ff
4bb-[
=138
4bb-]
4aa-
4r
=139
2c
8e-
8d-
=140
4d-
4r
==
*-
